X:1
T:The Handwriting on the Wall
T:The Handwriting on the Wall
T:Knowles Shaw, 1877 & Ira Sankey
T:Public Domain Courtesy of the Cyber Hymnal™
T:Public Domain Courtesy of the Cyber Hymnal™
C:Knowles Shaw, 1877 & Ira Sankey
Z:Public Domain
Z:Courtesy of the Cyber Hymnal™
%%score ( 1 2 ) ( 3 4 )
L:1/8
Q:1/4=100
M:4/4
K:F
V:1 treble 
V:2 treble 
V:3 bass 
V:4 bass 
V:1
 [FA]>[FB] | [Fc]2 C>C C<C [CF][EG] | [FA]>[EG] [FA][GB] [Ac]2 [Fc][Fc] | %3
w: 1.~At the|feast of Bel- shaz- zar and a|thou- sand of his lords, While they|
w: 2.~See the|brave cap- tive, Dan- iel, as he|stood be- fore the throng, And re-|
w: 3.~See the|faith, zeal and cour- age, that would|dare to do the right, Which the|
w: 4.~So our|deeds are re- cord- ed— there’s a|Hand that’s writ- ing now: Sin- ner,|
 [Fd]>[FB] [FB][Fd] [Fc]<[FA] [FA][EG] | [DF]>[DF] [^CE]>[DF] [EG]2 [FA]>[FB] | %5
w: drank from gold- en ves- sels, as the|Book of Truth re- cords, In the|
w: buked the haught- y mon- arch for his|might- y deeds of wrong; As he|
w: Spir- it gave to Dan- iel— ’twas the|sec- ret of his might, In his|
w: give your heart to Je- sus, to His|roy- al man- dates bow; For the|
 [Fc]2 C>C C<C [CF][EG] | [FA]>[EG] [FA][GB] [Ac]2 ([Fc][Fc]) | %7
w: night, as they re- veled in the|roy- al pal- ace hall, They~were *|
w: read out the writ- ing— ’twas the|doom of one and all, For~the *|
w: home in Ju- de- a, or a|cap- tive in the hall, He *|
w: day is ap- proach- ing— it must|come to one and all, When~the *|
 [Fd]>[FB] [FB][Fd] [Fc]/[FA] z/ F[FG] | [FA]>[FA] [FA]>[EG] !fermata!F2 x2 || %9
w: seized with con- ster- na- tion— ’twas the|Hand up- on the wall!|
w: king- dom now was fin- ished— said the|Hand up- on the wall!|
w: un- der- stood the writ- ing of his|God up- on the wall!|
w: sin- ners’ con- demn- a- tion will be|writ- ten on the wall!|
"^Refrain" [FA]>[FB] x4 | [Fc]2 [Ec]2 [Fc]2 A>G | F6 [CF][CF] | [EG]2 [EG]2 [EG]2 d>c | %13
w: ||||
w: ’Tis the|hand of God on the|wall! ’Tis the|hand of God on the|
w: ||||
w: ||||
 !fermata!c6 !fermata![FA]>[FB] | [Fc]<[Fc] [Fd]>[Fc] [Fc]<[FA] z F | %15
w: ||
w: wall! Shall the|rec- ord be “Found want- ing!” Or|
w: ||
w: ||
 [DG]<[DF] [DF]>[B,D] [B,D]/[A,C] z/ [CF]>[DG] | [CA]2 [CF]2 [EG]!fermata![Ec] A>G | %17
w: ||
w: shall it be “Found trust- ing!” While that|hand is writ- ing on the|
w: ||
w: ||
"^riten." F6 x2 |] x6 |] %19
w: ||
w: wall?||
w: ||
w: ||
V:2
 x2 | x2 C>C C<C x2 | x8 | x8 | x8 | x2 C>C C<C x2 | x8 | x6 F x | x4 F2 x2 || x6 | x8 | %11
 (CCD>D C2) x2 | x8 | (FFE>E F2) x2 | x7 F | x8 | x8 | (CCD>D C2) x2 |] x6 |] %19
V:3
 F,>[F,G,] | [F,A,]2 [F,A,]>[F,A,] [F,A,]<[F,A,] [A,,C][C,C] | %2
w: ~ ~|~ ~ ~ ~ ~ ~ ~|
 [F,C]>[B,C] [A,C][G,C] [F,C]2 [F,A,][F,A,] | [B,,B,]>[B,,D] [B,,D][B,,B,] [F,A,]/ x7/2 | %4
w: ~ ~ ~ ~ ~ ~ ~|~ ~ ~ ~ ~|
 [F,C]3/2[F,C][C,B,] x9/2 | [D,A,]>[D,A,] [A,,A,]>[D,A,] [C,C]2 F,>[F,G,] | %6
w: ~ ~ ~|~ ~ ~ ~ ~ ~ ~|
 [F,A,]2 [F,A,]>[F,A,] [F,A,]<[F,A,] [A,,C][C,C] | [F,C]>[B,C] [A,C][G,C] [F,C]2 ([F,A,][F,A,]) | %8
w: ~ ~ ~ ~ ~ ~ ~|~ ~ ~ ~ ~ ~ *|
 [B,,B,]>[B,,D] [B,,D][B,,B,] [F,A,]/[F,C] z/ [F,A,][D,=B,] || %9
w: ~ ~ ~ ~ ~ ~ ~ ~|
 [C,C]>[C,C] [C,C]>[C,B,] !fermata![F,A,]2 | F,>[F,G,] x6 | [F,A,]2 [C,G,]2 [F,A,]2 z2 | %12
w: ~ ~ ~ ~ ~|~ ~|~ ~ ~|
 [F,A,][F,A,] [F,B,]>[F,B,] [F,A,]2 [F,A,][F,A,] | [C,C]2 [C,G,]2 [C,C]2 z2 | %14
w: writ- ing on the wall! ~ ~|~ ~ ~|
 [F,A,][F,A,] [C,G,]>[C,G,] !fermata![F,A,]2 F,>[F,G,] | %15
w: writ- ing on the wall! ~ ~|
 [F,A,]<[F,A,] [F,B,]>[F,A,] [F,A,]<[F,C] z [F,A,] | %16
w: ~ ~ ~ ~ ~ ~ ~|
 [B,,B,]<[B,,B,] [B,,B,]>[B,,F,] [F,,F,]/[F,,F,] z/ [A,,F,]>[B,,F,] | %17
w: ~ ~ ~ ~ ~ ~ ~ ~|
 [C,F,]2 [C,A,]2 [C,G,]!fermata![C,G,] z2 |] [F,A,][F,A,] [B,,B,]>[B,,B,] [F,,A,]2 |] %19
w: ~ ~ ~ ~|writ- ing on the wall!|
V:4
 F,3/2 x/ | x8 | x8 | x8 | x8 | x6 F,3/2 x/ | x8 | x8 | x8 || x6 | F,3/2 x13/2 | x8 | x8 | x8 | %14
 x6 F,3/2 x/ | x8 | x8 | x8 |] x6 |] %19

